symbols/web/cake/materialsymbolssharp/cake_wght200gradN25_24px.svg

<svg xmlns="http://www.w3.org/2000/svg" height="24" width="24"><path d="M4.15 20.85v-7.025h1.975V8.1h5.4V6.625q-.425-.25-.7-.6-.275-.35-.275-.825 0-.275.113-.55.112-.275.312-.475L12 3.15l1.025 1.025q.2.2.313.475.112.275.112.55 0 .475-.275.825t-.7.6V8.1h5.4v5.725h1.975v7.025Zm2.9-7.025h9.9v-4.8h-9.9Zm-2 6.125h13.9v-5.2H5.05Zm2-6.125h9.9Zm-2 6.125h13.9Zm12.9-6.125H6.05h11.9Z"/></svg>

<svg xmlns="http://www.w3.org/2000/svg" height="24" width="24"><path d="M4.15 20.85V13.825H6.125V8.1H11.525V6.625Q11.1 6.375 10.825 6.025Q10.55 5.675 10.55 5.2Q10.55 4.925 10.663 4.65Q10.775 4.375 10.975 4.175L12 3.15L13.025 4.175Q13.225 4.375 13.338 4.65Q13.45 4.925 13.45 5.2Q13.45 5.675 13.175 6.025Q12.9 6.375 12.475 6.625V8.1H17.875V13.825H19.85V20.85ZM7.05 13.825H16.95V9.025H7.05ZM5.05 19.95H18.95V14.75H5.05ZM7.05 13.825H16.95ZM5.05 19.95H18.95ZM17.95 13.825H6.05H17.95Z"/></svg>
